!!!!SEGMENT: pl-wumfc--r262_paderewski-ignacy-jan--danse-polonaise-krakowiak.krn
!!!cenid: 18xx:3150
!!!COM: Paderewski, Ignacy Jan
!!!COM-rismID: pe30029943
!!!CDT: 1860/11/18-1941/06/29
!!!CNT: Polish
!!!OTL: Danse Polonaise – Krakowiak
!!!PDT:
!!!AGN:
!!!SMS-siglum: PL-Wumfc
!!!SMS-shelfmark: R262
!!!SMS-shelfwork: W
!!!SMS-variant:
!!!SMS-altvar:
!!!NIFC-rismSourceID: 1001156660
!!!NIFC-rismChildID: 1001156660
!!!NIFC-islandoraID: pl-wumfc:282
!!!URL-pdf-islandora: https://repozytorium.nifc.pl/islandora/object/pl-wumfc%3A282/datastream/PDF/view
!!!URL-scan: https://polish.musicsources.pl/pl/lokalizacje/galeria/rekopisy/4682 @EN{Scan on Polish Music Sources Website} @PL{Skany w portalu Dziedzictwo Muzyki Polskiej w otwartym dostępie}
!!!ONB-nifc: UWAGA: na podstawie partytury. Proszę wypełnić SMS:variant SMS:altvar (w żródle występuje partytura i partia skrzypiec)
!!!AIN: 2 piano 1 violn
!!!key: C
!!!OMD: Allegretto ma non troppo.
!!!OMD-mod: Allegretto ma non troppo
**kern	**dynam	**fing	**kern	**dynam	**kern	**fing	**dynam
*group2	*	*	*group2	*	*group1	*	*
*part3	*part3	*part3	*part2	*part2	*part1	*part1	*part1
*staff3	*	*staff3	*staff2	*	*staff1	*	*
*I"[Piano]	*	*	*I"[Piano]	*	*I"[Violino]	*	*
*mI"Pianoforte	*	*	*mI"Pianoforte	*	*mI"Violino	*	*
*Ipiano	*	*	*Ipiano	*	*Ivioln	*	*
*ICklav	*	*	*ICklav	*	*ICstr	*	*
*IGacmp	*	*	*IGacmp	*	*IGsolo	*	*
*clefF4	*	*	*clefG2	*	*clefG2	*	*
*k[]	*	*	*k[]	*	*k[]	*	*
*C:	*	*	*C:	*	*C:	*	*
*M2/4	*	*	*M2/4	*	*M2/4	*	*
=1	=1	=1	=1	=1	=1	=1	=1
2CC\	.	.	8r	.	2r	.	.
.	.	.	(>8G</	.	.	.	.
!	!	!	!LO:MO:mod=4g/ 4e/ 4c^>/)	!	!	!	!
.	.	.	4g/ 4e/ 4c^>/)	.	.	.	.
=2	=2	=2	=2	=2	=2	=2	=2
2CC\	.	.	8r	.	4r	.	.
.	.	.	(>8G</	.	.	.	.
!	!	!	!LO:MO:mod=4g/ 4e/ 4c^>/)	!	!	!	!
.	.	.	4g/ 4e/ 4c^>/)	.	8r	.	.
!	!	!	!	!	!LO:TX:a:t=sol G.:mod=sul G	!	!LO:DY:rj:t=mf.
.	.	.	.	.	(<8Gu>/	.	mf
=3	=3	=3	=3	=3	=3	=3	=3
*^	*	*	*	*	*	*	*
8r	2GG\ 2CC\	.	.	4r	.	8d/L	.	.
!	!	!	!	!	!LO:DY:b:t=p.	!	!	!
(<8G/	.	.	.	.	p	8e/)	.	.
!	!	!	!	!LO:TX:t=P:problem=all\right&colon; global	!	!	!	!
4f/ 4B/)	.	.	.	4gg\ 4ff\ 4b\ 4g^>\	.	(<8f/	.	.
.	.	.	.	.	.	16e~</L	.	.
.	.	.	.	.	.	16d~</JJ	.	<
=4	=4	=4	=4	=4	=4	=4	=4	=4
8r	2GG\ 2CC\	.	.	4r	.	8e~/)	.	.
(<8G/	.	.	.	.	.	(<4g/	.	[
4e/ 4c/)	.	.	.	4gg\ 4ee\ 4cc\ 4g^>\	.	.	.	.
.	.	.	.	.	.	8e/)	.	.
=5	=5	=5	=5	=5	=5	=5	=5	=5
8r	2CC\	.	.	4r	.	8d/L	.	.
(<8A/	.	.	.	.	.	8c/	.	.
!	!	!	!	!LO:TX:t=P:problem=4\middle	!	!	!	!
4f/ 4c/)	.	.	.	4aa\ 4ff\ 4cc\ 4a^>\	.	(<8A/	.	.
.	.	.	.	.	.	8c/J)	.	.
=6	=6	=6	=6	=6	=6	=6	=6	=6
.	.	.	.	.	.	(<8qc/	.	.
8r	2CC\	.	.	4r	.	2G^>/)	.	.
!LO:SIC:s=(8G/	!	!	!	!	!	!	!	!
8G/	.	.	.	.	.	.	.	.
!LO:SIC:s=4e/ 4c/)	!	!	!	!	!	!	!	!
4e/ 4c/	.	.	.	4gg\ 4ee\ 4cc\ 4g^>\	.	.	.	.
!!LO:LB:g=original
=7	=7	=7	=7	=7	=7	=7	=7	=7
!LO:SIC:s=8r	!	!	!	!	!	!	!	!
8ryy	2GG\ 2CC\	.	.	4r	.	8d/L	.	<
(<8G/	.	.	.	.	.	8e/	.	.
4f/ 4B/)	.	.	.	4gg\ 4ff\ 4b\ 4g^>\	.	(<8f/	.	[
.	.	.	.	.	.	16e/L	.	.
.	.	.	.	.	.	16d/JJ	.	.
=8	=8	=8	=8	=8	=8	=8	=8	=8
*	*	*	*	*	*	*	*^	*
8rA	2C\	.	.	4r	.	8e/)	.	.	.
!	!	!	!	!	!	!	!	!LO:MO:null:mod=*above	!
*	*	*	*	*	*	*	*	*	*
(<8A/	.	.	.	.	.	(<4a^>/	.	3	.
4e/ 4c/)	.	.	.	4aa\ 4ee\ 4cc\ 4a^>\	.	.	.	.	.
.	.	.	.	.	.	8e/)	.	3	.
*	*	*	*	*	*	*	*v	*v	*
=9	=9	=9	=9	=9	=9	=9	=9	=9
8rA	2AA\	.	.	4r	.	8dM</L	.	.
(<8A/	.	.	.	.	.	8c/	.	.
4a/ 4e/)	.	.	.	4ccc\ 4ff#X\ 4ee\ 4cc^>\	.	(<8d/	.	.
.	.	.	.	.	.	8e/J)	.	.
=10	=10	=10	=10	=10	=10	=10	=10	=10
.	.	.	.	.	.	(<8qe/	.	.
8rA	4.EE;>\	.	.	4r	.	4.B;>/)	.	.
(<8B/	.	.	.	.	.	.	.	.
8g#X/ 8e;>/)	.	.	.	8bb\ 8gg#X\ 8ee\ 8b;>\	.	.	.	.
!	!	!	!	!LO:TX:a:B:t=Vivace.:mod=Vivace	!	!LO:TX:a:B:t=Vivace.:mod=Vivace	!	!
8r	8rd	.	.	8r	.	8ee\	.	.
*v	*v	*	*	*	*	*	*	*
=11	=11	=11	=11	=11	=11	=11	=11
!	!	!	!	!LO:DY:b:t=pp.	!	!	!
2G\	.	.	8r	pp	4gg\	.	.
.	.	.	8b/ 8gn/ 8d/	.	.	.	.
!	!	!	!	!	!	!	!LO:DY:a
.	.	.	.	.	(<8qb/	.	pp
.	.	.	8r	.	8dd\L)	.	.
.	.	.	.	.	(<8qb-X/	.	.
.	.	.	8b-X/ 8g/ 8c#X/	.	8ee\J)	.	.
=12	=12	=12	=12	=12	=12	=12	=12
.	.	.	.	.	(<8qa/	.	.
2D\	.	.	8r	.	8ff\L)	.	<
!	!	!	!	!	!LO:SIC:s=(<16qqff/LL	!	!
.	.	.	.	.	(>(<16qqff/LL	.	.
.	.	.	.	.	16qqgg/JJ	.	.
.	.	.	8a/ 8f/ 8d/	.	8ff\))	.	.
.	.	.	8r	.	(>8ee\	.	.
.	.	.	8a/ 8f/ 8d/	.	8dd\J	.	[[
!!LO:LB:g=original
=13	=13	=13	=13	=13	=13	=13	=13
2G\	.	.	8r	.	8gg\)^<	.	.
!	!	!	!	!	!LO:MO:mod=&(>(<16qqgg/LL)	!	!
.	.	.	.	.	&(>(<16qqgg/LL)	2	.
.	.	.	.	.	16qqaa/JJ	.	.
.	.	.	8b/ 8g/ 8d/	.	8gg\L)	.	.
.	.	.	.	.	((<8qb	.	.
!	!	!	!	!	!	!	!LO:DY:b:t=pp.
.	.	.	8r	.	8dd\&))	.	pp
.	.	.	.	.	(>8qb-X/	.	.
.	.	.	8b-X/ 8g/ 8c#X/	.	8ee\J)	.	.
=14	=14	=14	=14	=14	=14	=14	=14
.	.	.	.	.	(>8qa/	.	.
4D\	.	.	8r	.	8ff\L)	.	.
.	.	.	.	.	(<16qqff/LL	.	.
.	.	.	.	.	16qqgg/JJ	.	.
.	.	.	8a/ 8f/ 8d/	.	8ff\)	.	.
4E\	.	.	8r	.	(>8ee\	.	.
.	.	.	8g#X/ 8e/ 8B/	.	8dd\J	.	.
=15	=15	=15	=15	=15	=15	=15	=15
!	!	!	!	!	!LO:TX:t=P:problem=8\right	!	!
4A\	.	.	8r	.	8cc\L)	.	.
!	!	!	!	!	!LO:SIC:s=(>16qqcc/LL	!	!
.	.	.	.	.	(>(>16qqcc/LL	.	.
.	.	.	.	.	16qqdd/JJ	.	.
!	!	!	!	!	!LO:SIC:s=(8cc~>\)	!	!
.	.	.	8a/ 8e/ 8c/	.	8cc~>\)	.	<
4D\	.	.	8r	.	8b~>\	.	.
.	.	.	8f#X/ 8e-X/ 8c/	.	8a~\J	.	.
=16	=16	=16	=16	=16	=16	=16	=16
8G\	.	.	8g/ 8d/ 8B/	.	8g~>/L)	.	.
!	!	!	!LO:TX:b:t=.uicz.:problem:niewyraźny tekst:mod=	!	!LO:TX:b:i:t=ritar.:mod=	!	!
(>8D\L	.	.	(<8f#X/L 8c/	.	(<8b/^<	.	.
8G\)	.	.	8g/ 8B/)	.	8g/)	.	.
(>8D\J	.	.	(<8f#/J 8c/	.	(<8b/J^<	.	.
=17	=17	=17	=17	=17	=17	=17	=17
*^	*	*	*	*	*	*	*
8G/)	2GG\	.	.	8g/ 8B/)	.	8g/)	.	.
.	.	.	.	.	.	(<16qqg/LL	.	.
.	.	.	.	.	.	16qqa/JJ	.	.
8D/	.	.	.	8g/ 8B/	.	8g/L)	.	.
8r	.	.	.	8r	.	(<8f/	.	.
8C#X/	.	.	.	8e/ 8A#X/	.	8e/J	.	.
=18	=18	=18	=18	=18	=18	=18	=18	=18
2D/	8GG\L	.	.	8d/L 8B/	.	8d/L)	.	.
!	!	!	!	!LO:MO:mod=!LO&colon;TX&colon;a&colon;i&colon;t=rit.	!	!LO:MO:mod=!LO&colon;TX&colon;a&colon;i&colon;t=rit.	!	!
!	!	!	!	!LO:TX:i:b:t=rit.	!	!LO:TX:b:i:t=rit.	!	!
!	!	!	!	!LO:SIC:s=(>/8f 8A/	!	!	!	!
.	(>8DD\	.	.	(<(>/8f 8A/	.	(<8f/J	.	.
!	!	!	!	!LO:SIC:s=8d/ 8B/)	!	!	!	!
.	8GG\)	.	.	8d/ 8B/))	.	8d/)	.	.
.	8DD;>\J	.	.	8f/J 8A;>/	.	(>8f;>v/	.	.
!!LO:LB:g=original
=19	=19	=19	=19	=19	=19	=19	=19	=19
*	*	*	*	*	*	*	*^	*
!	!	!	!	!	!	!LO:TX:a:i:t=a tempo.:mod=a tempo	!	!	!
!	!	!	!	!	!	!LO:TX:b:t=IV	!	!	!
!	!	!	!	!	!	!LO:MO:mod=8ddo<\L)	!	!	!
8rE	2GG\	.	.	8r	.	8ddo<|\L)	.	.	.
!	!	!	!	!	!	!LO:TX:b:t=II	!	!	!
(<16G^>/LL	.	.	.	[>/8f [<8B^>/	.	8eev>\	.	2	.
16A/JJ	.	.	.	.	.	.	.	.	.
4G/)	.	.	.	4f/] 4B/]	.	8ff\	.	.	.
.	.	.	.	.	.	(>16ee~>\L	.	.	.
.	.	.	.	.	.	16dd~>\JJ	.	.	.
*	*	*	*	*	*	*	*v	*v	*
=20	=20	=20	=20	=20	=20	=20	=20	=20
8rE	2CC\	.	.	8r	.	8ee\)	.	<
(<16G^>/LL	.	.	.	[>/8e [<8c^>/	.	(>4gg\	.	[
16A/JJ	.	.	.	.	.	.	.	.
4G/)	.	.	.	4e/] 4c/]	.	.	.	.
.	.	.	.	.	.	8ee\)	.	>
=21	=21	=21	=21	=21	=21	=21	=21	=21
!	!	!	!	!	!	!LO:TX:t=P:problem=all\right&colon; global	!	!
8rE	2FF\	.	.	8r	.	8dd\L	.	]
(<16A^>/LL	.	.	.	[>/8f [<8c^>/	.	8cc\	.	.
16B/JJ	.	.	.	.	.	.	.	.
4A/)	.	.	.	4f/] 4c/]	.	(>8a\	.	.
.	.	.	.	.	.	8cc\J)	.	.
=22	=22	=22	=22	=22	=22	=22	=22	=22
.	.	.	.	.	.	(<8qcc/	.	.
8rA	2C\	.	.	8r	.	2g^>/)	.	.
(<16G/LL	.	.	.	[>/8e [<8c^>/	.	.	.	.
16A/JJ	.	.	.	.	.	.	.	.
4G/)	.	.	.	4e/] 4c/]	.	.	.	.
=23	=23	=23	=23	=23	=23	=23	=23	=23
!	!	!	!	!	!	!LO:TX:a:t=sul A.:mod=sul A	!	!
8r	2F\	.	.	8r	.	8a\L	.	<
(<16A/LL	.	.	.	[>/8f [<8c/	.	8b\	.	.
16B/JJ	.	.	.	.	.	.	.	.
4A/)	.	.	.	4f/] 4c/]	.	(>8cc\	.	.
.	.	.	.	.	.	8aa\J	2	.
=24	=24	=24	=24	=24	=24	=24	=24	=24
!	!	!	!	!	!	!	!	!LO:MO:mod=!null:null
!	!	!	!	!	!	!LO:TX:t=P:problem=all\left&colon; global	!	!LO:HP:i:t=cres.
8rB	2E\	.	.	8r	.	8gg\)	.	[<
(<16G/LL	.	.	.	[>/8g [<8c/	.	(>4bb\	3	.
16A/JJ	.	.	.	.	.	.	.	.
4G/)	.	.	.	4g/] 4c/]	.	.	.	.
.	.	.	.	.	.	8aa\)	3	.
!!LO:PB:g=original
=25	=25	=25	=25	=25	=25	=25	=25	=25
8r	2D\	.	.	8r	.	8gg\L	.	.
(<16G/LL	.	.	.	[>/8f [<8B^>/	.	8ff\	.	<
16A/JJ	.	.	.	.	.	.	.	.
4G/)	.	.	.	4f/] 4B/]	.	(>8dd\	.	.
.	.	.	.	.	.	8ff\J)	.	[[
=26	=26	=26	=26	=26	=26	=26	=26	=26
8rA	2C\	.	.	8r	.	16ee\LL	.	.
.	.	.	.	.	.	16ff\JJ	.	.
(<16G/LL	.	.	.	[>/8e [<8c^>/	.	4gg\	.	>
16A/JJ	.	.	.	.	.	.	.	.
4G/)	.	.	.	4e/] 4c/]	.	.	.	.
.	.	.	.	.	.	(<8g/	.	]
*v	*v	*	*	*	*	*	*	*
=27	=27	=27	=27	=27	=27	=27	=27
!	!	!	!	!	!LO:TX:t=P:problem=all\right&colon; global	!	!
(>4.F\	.	.	8r	.	8a\L)	.	.
.	.	.	(>4f/ 4A/	.	8b\	.	<
.	.	.	.	<	(8cc\	.	.
8f\	.	.	8cc/ 8a/)	.	8aa\J	.	.
=28	=28	=28	=28	=28	=28	=28	=28
!LO:TX:t=P:problem=all\middle&colon; global	!	!	!	!	!LO:TX:t=P:problem=8\left	!	!
8e\)	.	.	8cc/ 8g/	[	8gg\)	.	[
!	!	!	!	!	!LO:TX:t=P:problem=all\middle&colon; global	!	!
(>8e\L	.	.	(>[>/8ccL 8g/	.	(>8ccc\L	.	.
!	!	!	!	!	!LO:TX:b:i:t=espres.:mod=espress.	!	!
8f\	.	.	8cc/] 8a/	.	8aa\)	.	.
8d\J	.	.	8ff/J 8b/ 8a/	.	(>8bb\J	.	.
=29	=29	=29	=29	=29	=29	=29	=29
!	!	!	!	!	!LO:TX:t=P:problem=all\left&colon; global	!	!
8e\L	.	.	8ee/L 8b/ 8g/	>	8gg\L)	.	.
.	.	.	.	.	(<16qqgg/LL	.	>
.	.	.	.	.	16qqaa/JJ	.	.
8c#X\	.	.	8ee/ 8b-X/ 8g/	.	8gg\)	.	.
8d\	.	.	8dd/ 8a/ 8f/	]	(>8ff\	.	.
!LO:TX:t=P:problem=8\left	!	!	!LO:SIC:v:s=8bn/J 8g/ 8f/)	!	!	!	!
8G\J)	.	.	8b-/J 8g/ 8f/)	.	8b\J	.	]]
=30	=30	=30	=30	=30	=30	=30	=30
!	!	!	!	!	!LO:SIC:s=(8qee/	!	!
.	.	.	.	.	8qee/	.	.
*^	*	*	*	*	*	*	*
!	!	!	!	!	!	!LO:SIC:s=8dd\))	!	!
8r	2CC\	.	.	8r	.	8dd\)	.	.
(<[>/8G 8C/	.	.	.	[>/8cc [<8e/	.	4cc^>\	.	.
4c/ 4G/] 4C/)	.	.	.	4cc/] 4e/]	.	.	.	.
.	.	.	.	.	.	8r	.	.
*v	*v	*	*	*	*	*	*	*
!!LO:LB:g=original
=31||	=31||	=31||	=31||	=31||	=31||	=31||	=31||
!	!	!	!	!	!LO:TX:t=P:problem=all\right&colon; global	!	!
!LO:TR:acc=#	!	!	!LO:TX:a:B:t=Poco piu modto ed appasionato.:mod=Poco più moderato ed appasionato	!	!LO:TX:a:B:t=Poco piu modto ed appasionato.:mod=Poco più moderato ed appasionato	!	!
[<2AATT<\	.	.	[>4E<^>/	.	(>8.eeL 8.cc\	.	f
.	.	.	.	.	16ddJk 16b'>\)	.	.
.	.	.	4e< 4c< 4E<^>/]	<	(>8ccL 8a'>\	.	.
.	.	.	.	.	8ddJ 8b'>\)	.	.
=32	=32	=32	=32	=32	=32	=32	=32
!LO:TX:b:t=P:problem:#	!	!	!	!	!	!	!
2AA\_<TTT<	.	.	[>4E<^>/	.	(>8.eeL 8.cc\	.	.
.	.	.	.	.	16ddJk 16b'>\)	.	.
.	.	.	4e< 4c< 4E<^>/]	.	(>8ccL 8a'>\	.	.
.	.	.	.	.	8ddJ 8b'>\)	.	.
=33	=33	=33	=33	=33	=33	=33	=33
!LO:TX:b:t=P:problem:#	!	!	!	!	!	!	!
2AA\]TTT<	.	.	4e< 4c< 4E</	.	(>8.eeL 8.cc\	.	.
.	.	.	.	.	16ddJk 16b'>\)	.	.
!	!	!	!	!	!LO:SIC:s=(<8ee 8cc'<\L	!	!
.	.	.	4c< 4A</	[[	(<8ee 8cc'<\	.	.
!	!	!	!	!	!LO:SIC:s=8ff#X 8a'<\)J	!	!
.	.	.	.	.	8ff#X 8a'<\)	.	.
=34	=34	=34	=34	=34	=34	=34	=34
!LO:TX:t=P:problem=all\left&colon; global	!	!	!	!	!LO:TX:t=P:problem=all\left&colon; global	!	!
4EE\	.	.	8r<	.	8gg 8b 8e\	.	.
!	!	!	!	!	!LO:TUP:a:problem=klamra łukowa	!	!
.	.	.	8B< 8G</	.	(>24e\LL	.	<
.	.	.	.	.	24g\	.	.
.	.	.	.	.	24b\JJ	.	.
*	*	*	*	*	*Xbrackettup	*	*
!	!	!	!	!LO:DY:rj:t=sf.	!LO:TUP:a:problem=klamra łukowa	!	!
4E\	.	.	4g 4B< 4G</	sf	24ee\LL	.	.
.	.	.	.	.	24gg\	.	.
.	.	.	.	.	24bb\	.	.
*	*	*	*	*	*8va	*	*
.	.	.	.	.	32eee\L	.	.
.	.	.	.	.	32ggg\	.	.
.	.	.	.	.	32bbb\	.	.
.	.	.	.	.	32eeeeo\JJJ)	.	[[
*	*	*	*	*	*X8va	*	*
=35	=35	=35	=35	=35	=35	=35	=35
!LO:TR:acc=#	!	!	!	!	!	!	!
[<2GGTT<\	.	.	[>4D<^>/	.	(>8.bbL 8.gg 8.d 8.G\	.	.
!	!	!	!	!	!LO:TX:t=P:problem=16\middle	!	!
.	.	.	.	.	16aaJk 16dd'>\)	.	.
!	!	!	!	!	!LO:TX:t=P:problem=8\middle	!	!
.	.	.	4d< 4B< 4D<^>/]	.	(>8ggL 8b'>\	.	.
.	.	.	.	.	8aaJ 8dd'>\)	.	.
!!LO:LB:g=original
=36	=36	=36	=36	=36	=36	=36	=36
!LO:TX:b:t=P:problem:#	!	!	!	!	!	!	!
!LO:SIC:s=2GG\_TTT<	!	!	!	!	!	!	!
2GG\]TTT<	.	.	[>4D</	.	(>8.bb\L 8.gg\	.	.
.	.	.	.	.	16aa\Jk 16dd'>\)	.	.
.	.	.	4d</ 4B</ 4D<^>/]	.	(>8gg\L 8b'>\	.	.
.	.	.	.	.	8aa\J 8dd'>\)	.	.
=37	=37	=37	=37	=37	=37	=37	=37
!LO:TX:b:t=P:problem:#	!	!	!	!	!	!	!
!LO:SIC:s=2GG\TTT<]	!	!	!	!	!	!	!
2GG\TTT<	.	.	4d</ 4B</ 4D</	.	(>8.bb\L 8.gg\	.	.
.	.	.	.	.	16aa\Jk 16dd'>\)	.	.
.	.	.	8d</L 8B</	.	(>8bb\L 8gg'>\	.	.
.	.	.	8c#X</J 8A</	.	8ccc#X\J 8a'>\)	.	.
=38	=38	=38	=38	=38	=38	=38	=38
!	!	!	!	!	!LO:SIC:s=8ddd\ 8ff#X\ 8d\	!	!
4FF#X\	.	.	8ryy	.	8ddd\L 8ff#X\ 8d\	.	.
!	!	!	!	!	!LO:TUP:a:t=P:problem=klamra łukowa	!	!
!	!	!	!	!	!LO:SIC:s=(>24d\LL	!	!
.	.	.	8d</ 8A</	.	(>24d\L	.	.
.	.	.	.	.	24f#X\	.	.
.	.	.	.	.	24a\JJ	.	<
!	!	!	!	!	!LO:TUP:a:t=P:problem=klamra łukowa	!	!
4F#X\ 4FF#\	.	.	4a/ 4d/ 4A/	sf	24dd\LL	.	.
.	.	.	.	.	24ff#\	.	.
.	.	.	.	.	24aa\	.	.
*	*	*	*	*	*8va	*	*
.	.	.	.	.	32ddd\L	.	.
.	.	.	.	.	32fff#\	.	.
.	.	.	.	.	32aaa\	.	.
.	.	.	.	.	32dddd\JJJ)	.	[
*	*	*	*	*	*X8va	*	*
=39	=39	=39	=39	=39	=39	=39	=39
*^	*	*	*	*	*	*	*
!LO:MO:null:mod=*ped	!	!	!	!LO:MO:mod=*null:null	!	!	!	!
*	*	*	*	*ped	*	*	*	*
!	!LO:TX:b:t=P:problem:con 8va	!	!	!	!	!	!	!
8r	[2FF\ [<2FFF^>\	.	.	8r	.	8r	.	.
!	!	!	!	!	!	!LO:TX:t=P:problem=all\middle&colon; global	!	!LO:MO:null:mod=ff
8f/ 8d/ 8A/ 8F/	.	.	.	8aa/ 8dd/ 8a/	ff	4aaa\ 4aa\ 4d\	.	.
*8va	*	*	*	*	*	*	*	*
!	!	!	!	!	!	!	!	!LO:DY:rj
!	!	!	!	!	!	!	!	!LO:MO:mod=.
[>/4ff^< [>/4dd [>/4a [<4f/	.	.	.	[>4aaa\^> [>4ddd\ [<4aa\	.	.	.	ff
.	.	.	.	.	.	(>8fffn\ 8aa\	.	.
*	*	*	*	*	*	*	*	*
=40	=40	=40	=40	=40	=40	=40	=40	=40
*	*	*	*	*	*	*	*^	*
*	*	*	*	*	*	*	*	*	*
!LO:TX:t=P:problem=błędne wyświetlanie	!	!	!	!	!	!	!	!	!
2ff/] 2dd/] 2a/] 2f/]	2F\] 2FF\]	.	.	2aaa\] 2ddd\] 2aa\]	.	8ddd\ 8ff\)	3 4	.	.
*X8va	*	*	*	*	*	*	*	*	*
.	.	.	.	.	.	8aa\L 8dd\	.	.	.
!	!	!	!	!	!	!LO:TX:t=P:problem=all\right&colon; global	!	!	!
.	.	.	.	.	.	(>8ff\ 8a\	.	.	.
!LO:MO:null:mod=*Xped	!	!	!	!LO:MO:mod=*null:null	!	!	!	!	!
*	*	*	*	*Xped	*	*	*	*	*
.	.	.	.	.	.	8dd\J 8f\)	.	.	.
*	*	*	*	*	*	*	*v	*v	*
*	*	*	*	*	*	*	*	*
!!LO:LB:g=original
=41	=41	=41	=41	=41	=41	=41	=41	=41
*	*	*	*	*^	*	*	*	*
!	!LO:TX:t=P:problem=all\left&colon; global	!	!	!	!	!	!LO:TX:t=P:problem=all\left&colon; global	!	!
4r	4BB\	.	.	4r	4ryy	.	16ff\LL 16dd\	.	<
.	.	.	.	.	.	.	16gg\JJ 16ee\	.	.
.	.	.	.	.	.	.	(<4aa\ 4ff\	.	[
!	!LO:MO:mod=4GG\	!	!	!	!	!	!	!	!
4ryy	4GG\	.	.	4a^>/	8r	.	.	.	.
!	!	!	!	!	!LO:TX:t=P:problem=all\left&colon; global	!	!	!	!
.	.	.	.	.	8f\ 8B\	.	8ff\ 8dd\)	.	.
*v	*v	*	*	*	*	*	*	*	*
=42	=42	=42	=42	=42	=42	=42	=42	=42
!LO:MO:mod=4C\	!	!	!	!	!	!LO:TUP:a:problem=klamra łukowa	!	!
4C\	.	.	8a^>/L	8r	.	(>24ff\LL 24dd\	.	.
.	.	.	.	.	.	24gg\ 24ee\	.	.
.	.	.	.	.	.	24ff\JJ 24dd\	.	>
!	!	!	!LO:MO:mod=8g/ 8e/ 8c^>/	!	!	!	!	!
.	.	.	8g/ 8e/ 8c^>/	4.ryy	.	(>4ee\ 4cc\	.	.
!LO:MO:mod=4CC\	!	!	!	!	!	!	!	!
4CC\	.	.	8e/ 8c/ 8G/	.	.	.	.	.
.	.	.	8c/J 8G</ 8E</	.	.	8ee\ 8cc'>\))	.	]
*	*	*	*v	*v	*	*	*	*
=43	=43	=43	=43	=43	=43	=43	=43
*^	*	*	*	*	*	*	*
*ped	*	*	*	*	*	*	*	*
8r	[>\2FF [<2FFF\	.	.	8r	f	8dd/ 8f/	.	f
8d/ 8A/ 8F/	.	.	.	8dd/ 8a/	.	4aa\ 4ff\ 4du>\	.	.
[>/4f^> [>/4d [</4A [<4F/	.	.	.	[>/4aa^> [>/4dd [<4a/	.	.	.	.
.	.	.	.	.	.	(>8ff\ 8dd\	.	.
=44	=44	=44	=44	=44	=44	=44	=44	=44
2f/] 2d/] 2A/] 2F/]	2FF\] 2FFF\]	.	.	2aa/] 2dd/] 2a/]	>]	8dd/L 8a/)	.	.
.	.	.	.	.	.	8a/ 8f/	.	.
.	.	.	.	.	.	(>8f/ 8d/	.	.
*Xped	*	*	*	*	*	*	*	*
.	.	.	.	.	.	8d/J 8A/)	.	.
*v	*v	*	*	*	*	*	*	*
=45	=45	=45	=45	=45	=45	=45	=45
!LO:TX:t=P:problem=all\middle&colon; global	!	!	!	!	!	!	!
4BBB\	.	.	8r	.	16f/LL 16d/	.	<
.	.	.	.	.	16g/JJ 16e/	.	.
.	.	.	8a/ 8d/ 8A/	.	(<4a/ 4f/	.	[
4BB\	.	.	8r	.	.	.	.
.	.	.	8d/ 8A/	.	8f/ 8A/)	.	.
=46	=46	=46	=46	=46	=46	=46	=46
*	*	*	*	*	*^	*	*
!LO:MO:mod=(<8EE\L	!	!	!	!	!LO:TX:t=P:problem=klamra łukowa	!	!	!
(>8EE\L	.	.	8r	.	(>24f/LL	8A\	.	.
.	.	.	.	.	24g/	.	.	.
.	.	.	.	.	24f/JJ	.	.	.
8BB\	.	.	8B</ 8G#X</	.	(>4e/ 4G#X/	4ryy	.	.
!	!	!	!LO:MO:mod=8r<	!	!	!	!	!
8BBB\	.	.	8r<	.	.	.	.	.
8BB\J)	.	.	8d</ 8A</	.	8dd 8f/))	8ryy	.	.
*	*	*	*	*	*v	*v	*	*
!!LO:PB:g=original
=47	=47	=47	=47	=47	=47	=47	=47
!	!	!	!	!	!LO:MO:mod=!LO&colon;TX&colon;a&colon;i&colon;t=ritard. molto	!	!
!	!	!	!	!	!LO:TX:b:i:t=ritardando molto.	!	!
!	!	!	!LO:TX:a:i:t= :mod=ritard. molto	!	!LO:TUP:a:t=P:problem=klamra łukowa	!	!
8EE\L	.	.	8r	.	(>24f/LL 24A/	.	.
.	.	.	.	.	24g/	.	.
.	.	.	.	.	24f/JJ	.	.
!LO:TX:t=P:problem=8\left	!	!	!	!	!	!	!
8BB\	.	.	8B/ 8G#X/	.	4e/ 4G#X/)	.	.
8BBB\	.	.	8r	.	.	.	.
8BB\J	.	.	8d/ 8A</ 8F</	.	8ddd\ 8ffv>\	.	.
=48	=48	=48	=48	=48	=48	=48	=48
!	!	!	!	!	!LO:TUP:b:t=P:problem=klamra łukowa	!	!
8EE\L	.	.	8B</ 8A</	.	(>24ff/LL 24a/	.	.
.	.	.	.	.	24gg/	.	.
.	.	.	.	.	24ff/JJ	.	.
8E\J	.	.	4g#X/ 4B</ 4G#X</	.	4ee\)	.	.
4EE\	.	.	.	.	.	.	.
.	.	.	.	.	(>8qee/	.	.
.	.	.	8ee 8e\	.	8eee\)	.	.
=49	=49	=49	=49	=49	=49	=49	=49
!	!	!	!LO:TX:t=P:problem=8\right	!	!LO:MO:mod=!LO&colon;TX&colon;a&colon;i&colon;t=a tempo	!	!
!	!	!	!LO:TX:a:i:t=a tempo	!	!LO:TX:a:i:t=a tempo:color=grey	!	!
!	!	!	!	!	!LO:SIC:s=[2eeett>\	!	!
8AA'>\L	.	.	(>8.ee\L 8.cc\	f	2eeett>\	.	<
8E'>\	.	.	.	.	.	.	.
.	.	.	16dd\Jk 16b\)	.	.	.	.
!	!	!	!LO:TX:t=P:problem=8\right	!	!	!	!
8e'>\	.	.	8cc\L 8a'>\	.	.	.	.
!LO:TX:t=P:problem=8\left	!	!	!	!	!	!	!
8E'>\J	.	.	8dd\J 8b'>\	.	.	.	.
=50	=50	=50	=50	=50	=50	=50	=50
!	!	!	!LO:TX:t=P:problem=8\right	!	!LO:SIC:s=2eeettt>\_	!	!
8AA'>\L	.	.	(>8.ee\L 8.cc\	.	2eeettt>\	.	.
!LO:TX:t=P:problem=8\left	!	!	!	!	!	!	!
8E'>\	.	.	.	.	.	.	.
.	.	.	16dd\Jk 16b\)	.	.	.	.
!	!	!	!LO:TX:t=P:problem=8\right	!	!	!	!
8e'>\	.	.	8cc\L 8a'>\	.	.	.	[
!LO:TX:t=P:problem=8\left	!	!	!	!	!	!	!
8E'>\J	.	.	8dd\J 8b'>\	.	.	.	.
=51	=51	=51	=51	=51	=51	=51	=51
!LO:TX:t=P:problem=8\left	!	!	!LO:TX:t=P:problem=all\right&colon; global	!	!LO:TX:t=P:problem=all\middle&colon; global	!	!
!	!	!	!	!	!LO:SIC:s=8eeettt>\]	!	!
8AA'>\L	.	.	(>8.ee\L 8.cc\	.	8eeettt>\	.	.
8E'>\	.	.	.	.	(>64aaa\LLLL	.	.
.	.	.	.	.	64ggg\	.	.
.	.	.	.	.	64fff\	.	.
.	.	.	.	.	64eee\	.	.
.	.	.	16dd\Jk 16b\)	.	64ddd\	.	.
.	.	.	.	.	64ccc\	.	.
.	.	.	.	.	64bb\	.	.
.	.	.	.	.	64aa\	.	.
8A'>\	.	.	8ee\L 8cc\	.	64gg\	.	.
.	.	.	.	.	64ff\	.	.
.	.	.	.	.	64ee\	.	.
.	.	.	.	.	64dd\	.	.
.	.	.	.	.	64cc\	.	.
.	.	.	.	.	64b\	.	.
.	.	.	.	.	64a\	.	.
.	.	.	.	.	64g\	.	.
!LO:TX:t=P:problem=8\left	!	!	!LO:TX:t=P:problem=8\left	!	!	!	!
8AA'>\J	.	.	8aa\J 8cc\ 8a\	.	64f\	.	.
.	.	.	.	.	64e\	.	.
.	.	.	.	.	64d\	.	.
.	.	.	.	.	64c\	.	.
.	.	.	.	.	64B\	.	.
.	.	.	.	.	64A\JJJJ)	.	.
.	.	.	.	.	32ryy	.	.
!!LO:LB:g=original
=52	=52	=52	=52	=52	=52	=52	=52
!	!	!	!	!	!LO:TX:t=P:problem=all\right&colon; global	!	!
!LO:TX:t=P:problem=all\left&colon; global	!	!	!	!	!LO:TUP:a:problem=klamra łukowa	!	!
!	!	!	!	!	!LO:MO:mod=!LO&colon;TUP&colon;a&colon;r=8&colon;num=3	!	!
!LO:SIC:s=8EE'\L	!	!	!	!	!LO:TUP:a:r=8:num=3	!	!
8EE\L	.	.	4gg#X/ 4b/ 4g#X/	.	(>24G#X\LL	.	<
.	.	.	.	.	24B\	.	.
!	!	!	!	!	!LO:TX:t=P:problem=all\middle&colon; global	!	!
.	.	.	.	.	24e\	.	.
!	!	!	!	!	!LO:TUP:a:problem=klamra łukowa	!	!
8BB'>\J	.	.	.	.	24g#X\	.	.
.	.	.	.	.	24b\	.	.
.	.	.	.	.	24ee\JJ	.	.
!	!	!	!	!LO:DY:a:rj:t=sf.	!LO:TUP:a:problem=klamra łukowa	!	!
!	!	!	!	!	!LO:MO:mod=!LO&colon;TUP&colon;b&colon;r=8&colon;num=3	!	!
!	!	!	!LO:SIC:v:s=4g#/ 4B/ 4G#</	!	!LO:TUP:a:r=8:num=3	!	!
4E\ 4EE\	.	.	4g#/ 4B/ 4G</	sf	24gg#X\LL	.	.
.	.	.	.	.	24bb\	.	.
*	*	*	*	*	*8va	*	*
.	.	.	.	.	24eee\	.	.
!	!	!	!	!	!LO:TUP:a:problem=klamra łukowa	!	!
.	.	.	.	.	24ggg#X\	.	.
.	.	.	.	.	24bbb\	.	.
.	.	.	.	.	24eeeeo\JJ)	.	[[
*	*	*	*	*	*X8va	*	*
=53	=53	=53	=53	=53	=53	=53	=53
!LO:TR:acc=#	!	!	!	!	!LO:TX:t=P:problem=8\right	!	!
!LO:SIC:s=[2GGTT<\	!	!	!	!LO:MO:null:mod=f	!	!	!
2GGTT<\	.	.	[>4D<^>/	.	(>8.bb\L 8.ggn\ 8.d\ 8.Gn\	.	.
!	!	!	!	!LO:DY:rj	!	!	!
!	!	!	!	!LO:MO:mod=.	!	!	!
.	.	.	.	f	16aa\Jk 16dd'>\)	.	.
!	!	!	!	!	!	!	!LO:DY:rj:t=f.
.	.	.	4d</ 4B</ 4D<^>/]	.	(>8gg\L 8b'>\	.	f
.	.	.	.	.	8aa\J 8dd'>\)	.	.
=54	=54	=54	=54	=54	=54	=54	=54
!LO:TX:b:t=P:problem:#	!	!	!	!	!	!	!
!LO:SIC:s=2GG\TTT<_	!	!	!	!	!	!	!
2GG\TTT<	.	.	[>4D</	.	(>8.bb\L 8.gg\	.	.
!	!	!	!	!	!LO:TX:t=P:problem=16\right	!	!
.	.	.	.	.	16aa\Jk 16dd'>\)	.	.
!	!	!	!LO:SIC:s=4d</ 4B</ 4D<^/]	!	!	!	!
.	.	.	4d</ 4B</ 4D</]	.	(>8gg\L 8b'>\	.	.
.	.	.	.	.	8aa\J 8dd'>\)	.	.
=55	=55	=55	=55	=55	=55	=55	=55
!LO:TX:b:t=P:problem:#	!	!	!	!	!	!	!
!LO:SIC:s=2GG\TTT<]	!	!	!	!	!	!	!
2GG\TTT<	.	.	4D</	.	(>8.bb\L 8.gg\	.	.
.	.	.	.	<	16aa\Jk 16dd'>\)	.	.
!	!	!	!	!	!LO:SIC:s=(>8bb\L 8gg'\	!	!
.	.	.	8d/L 8B/	[[	(>8bb\L 8gg\	.	.
.	.	.	8a/J 8c#X/ 8A/	.	8ccc#X\J 8ee\ 8a'>\)	.	.
=56	=56	=56	=56	=56	=56	=56	=56
!	!	!	!	!	!LO:TX:t=P:problem=8\left	!	!
4FF#X\	.	.	8a/L 8d/ 8A/	.	8ddd\ 8dd\ 8d\	.	.
!	!	!	!	!	!LO:TUP:a:problem=klamra łukowa	!	!
.	.	.	8d/J 8A/	.	(>24d\LL	.	<
.	.	.	.	.	24f#X\	.	.
.	.	.	.	.	24a\JJ	.	.
!	!	!	!	!LO:DY:a:t=sf.	!LO:TUP:a:problem=klamra łukowa	!	!
4F#X\	.	.	4a/ 4d/ 4A/	sf	24dd\LL	.	.
.	.	.	.	.	24ff#X\	.	.
.	.	.	.	.	24aa\	.	.
.	.	.	.	.	32ddd\L	.	.
*	*	*	*	*	*8va	*	*
.	.	.	.	.	32fff#X\	.	.
.	.	.	.	.	32aaa\	.	.
.	.	.	.	.	32dddd\JJJ)	.	[[
*	*	*	*	*	*X8va	*	*
!!LO:LB:g=original
=57	=57	=57	=57	=57	=57	=57	=57
*^	*	*	*	*	*	*	*
!LO:MO:null:mod=*ped	!	!	!	!LO:MO:mod=*null:null	!	!	!	!
*	*	*	*	*ped	*	*	*	*
8r	[>2BB-X\ [<2BBB-X\	.	.	8r	.	8r	.	.
!	!	!	!	!	!	!LO:TX:t=P:problem=all\right&colon; global	!	!LO:MO:null:mod=ff
8d 8B-X 8Fn/	.	.	.	8ff/ 8b-X/ 8f/	.	4fffn\ 4ffn\ 4d\	.	.
!LO:SIC:s=[4dd>\ [4b>-y\ [4f>\ [4d>\	!	!	!	!	!	!	!	!
[4dd>\ [4b>\ [4f>\ [4d>\	.	.	.	[4fff [4bb-X [4ff/	f	.	.	.
!	!	!	!	!	!	!	!	!LO:DY:rj
!	!	!	!	!	!	!	!	!LO:MO:mod=.
.	.	.	.	.	.	(>8ddd\ 8ff\	.	ff
=58	=58	=58	=58	=58	=58	=58	=58	=58
!LO:SIC:s=2dd>\] 2b->\] 2f>\] 2d>\]	!LO:MO:mod=2BB-] 2BBB-\]	!	!	!	!	!	!	!
2dd>\] 2b>\] 2f>\] 2d>\]	2BB-] 2BBB-\]	.	.	2fff] 2bb-] 2ff/]	.	8bb-X\L 8dd\)	.	.
.	.	.	.	.	.	8ff\ 8b-X\	.	.
.	.	.	.	.	.	(>8dd\ 8f\	.	.
!LO:MO:null:mod=*Xped	!	!	!	!LO:MO:mod=*null:null	!	!	!	!
*	*	*	*	*Xped	*	*	*	*
.	.	.	.	.	.	8b-\J 8d\)	.	.
*v	*v	*	*	*	*	*	*	*
=59	=59	=59	=59	=59	=59	=59	=59
!	!	!	!	!LO:DY:b:t=p.	!LO:TX:t=P:problem=all\left&colon; global	!	!
4BB-X\	.	.	8r	p	16dd\LL 16b-X\	.	.
.	.	.	.	.	16ee\JJ 16cc\	.	.
.	.	.	8d< 8B-X< 8F</	.	(>4ff\ 4dd\	.	.
4D\	.	.	8r	.	.	.	.
.	.	.	8f< 8B-< 8F</	.	8dd\ 8b-\)	.	.
=60	=60	=60	=60	=60	=60	=60	=60
!	!	!	!	!	!LO:TUP:a:problem=klamra łukowa	!	!
4F\	.	.	8r	.	24dd\LL 24b-X\	.	.
.	.	.	.	.	24ee\ 24cc\	.	.
.	.	.	.	.	24dd\JJ 24b-\	.	.
!	!	!	!	!	!LO:TX:t=P:problem=all\right&colon; global	!	!
.	.	.	8f< 8c< 8A</	.	(>4cc\ 4a\	.	.
4FF\	.	.	8r<	.	.	.	.
.	.	.	8a 8f 8c/	.	8cc\ 8a'>\)	.	.
=61	=61	=61	=61	=61	=61	=61	=61
*^	*	*	*	*	*	*	*
!LO:MO:null:mod=*ped	!	!	!	!LO:MO:mod=*null:null	!	!	!	!
*	*	*	*	*ped	*	*	*	*
8r	[>2FF [<2FFF\	.	.	8r	.	8r	.	.
8A 8F 8C/	.	.	.	8cc 8f 8c/	.	4ccc\ 4ff\ 4a\	.	f
!	!	!	!	!	!LO:DY:a	!	!	!
[<4a> [<4f> [<4A>\	.	.	.	[>4ccc [>4ff [<4cc/	f	.	.	.
.	.	.	.	.	.	(>8aa\ 8ff\	.	.
=62	=62	=62	=62	=62	=62	=62	=62	=62
!	!	!	!	!	!	!LO:TX:t=P:problem=8\left	!	!
2a>] 2f>] 2A>\]	2FF] 2FFF\]	.	.	2ccc] 2ff] 2cc/]	.	8ff\L 8cc\)	.	>
.	.	.	.	.	.	8cc\ 8a\	.	.
.	.	.	.	.	.	(>8a\ 8f\	.	.
!LO:MO:null:mod=*Xped	!	!	!	!LO:MO:mod=*null:null	!	!	!	!
*	*	*	*	*Xped	*	*	*	*
.	.	.	.	.	.	8f\J 8c\)	.	]]
*v	*v	*	*	*	*	*	*	*
!!LO:LB:g=original
=63	=63	=63	=63	=63	=63	=63	=63
!LO:TX:t=P:problem=all\middle&colon; global	!	!	!	!LO:MO:null:mod=!LO&colon;HP&colon;b&colon;t=dim.	!	!	!
!	!	!	!	!	!	!	!
4FF\	.	.	8r	>	16aLL 16f/	.	.
.	.	.	.	.	16bJJ 16g/	.	.
!	!	!	!	!	!LO:TX:t=P:problem=all\middle&colon; global	!	!
.	.	.	8f< 8c< 8A</	.	4cc 4a\	.	.
!	!	!	!LO:MO:mod=8r<	!	!	!	!
4BB\	.	.	8r<	.	.	.	.
.	.	.	8f 8d# 8A/	.	8a 8f/	.	.
=64	=64	=64	=64	=64	=64	=64	=64
!	!	!	!	!	!LO:TUP:b:problem=klamra łukowa	!	!
8EE\L	.	.	8r<	.	24aLL 24f/	.	.
.	.	.	.	.	24b 24g/	.	.
.	.	.	.	.	24aJJ 24f/	.	.
!	!	!	!LO:SIC:s=(>4e 4G#X/	!LO:HP:a	!	!	!
8BB\	.	.	(<(>4e 4G#X/	>	4g#X 4e/u<	.	.
8BBB\	.	.	.	.	.	.	.
!	!	!	!LO:SIC:s=8f 8d#X 8A/)	!	!LO:TX:a:t=IV	!	!
8BB\J	.	.	8f 8d#X) 8A/)	]]	8bbo/	.	.
=65	=65	=65	=65	=65	=65	=65	=65
!	!	!	!	!	!LO:TUP:a:problem=klamra łukowa	!	!
8EE\L	.	.	8r	.	24aaLL 24ff\	.	.
.	.	.	.	.	24bb\	.	.
.	.	.	.	.	24aaJJ 24ff\	.	.
!	!	!	!LO:SIC:s=(>4e 4G#X/	!LO:HP:a	!	!	!
8BB\	.	.	(<(>4e 4G#X/	>	4gg#X 4ee\	.	.
8BBB\	.	.	.	.	.	.	.
!	!	!	!LO:SIC:s=8f#X 8A/)	!	!LO:TUP:a:problem=klamra łukowa	!	!
8BB\J	.	.	8f#X 8A/))	]]	48a\LLL	.	.
.	.	.	.	.	48dd#\	.	.
.	.	.	.	.	48bb\	.	.
.	.	.	.	.	48aa\	.	.
.	.	.	.	.	48ddd#X\	.	.
.	.	.	.	.	48bbb\JJJ	.	.
=66	=66	=66	=66	=66	=66	=66	=66
*	*	*	*	*	*8va	*	*
4EE\	.	.	8r	.	(>8bbb\L	.	<
.	.	.	4e 4G#X/	.	8eeee\J)	.	[[
!LO:TX:t=P:4\left:problem	!	!	!	!	!	!	!
4E\	.	.	.	.	[<4eeee\	.	.
.	.	.	8g#X 8e 8B/	.	.	.	.
=67	=67	=67	=67	=67	=67	=67	=67
!	!	!	!	!LO:DY:b:t=p.	!LO:TX:b:i:t=gliss.	!	!
2E 2EE\	.	.	2b 2g#X 2B/	p >	(<64eeee\LLLL]	.	.
.	.	.	.	.	64eeee-X\	.	.
.	.	.	.	.	64dddd\	.	.
.	.	.	.	.	64dddd-X\	.	.
.	.	.	.	.	64cccc\	.	.
.	.	.	.	.	64bbb\	.	.
.	.	.	.	.	64bbb-X\	.	.
.	.	.	.	.	64aaa\	.	.
.	.	.	.	.	64ggg#X\	.	.
.	.	.	.	.	64gggn\	.	.
*	*	*	*	*	*X8va	*	*
!	!	!	!	!	!LO:TX:a:t=loco	!	!
.	.	.	.	.	64fff#X\	.	.
.	.	.	.	.	64fffn\	.	.
.	.	.	.	.	64eee\	.	.
.	.	.	.	.	64eee-X\	.	.
.	.	.	.	.	64ddd\	.	.
.	.	.	.	.	64ccc#X\	.	.
.	.	.	.	.	64cccn\	.	.
.	.	.	.	.	64bb\	.	.
.	.	.	.	.	64bb-X\	.	.
.	.	.	.	]	64aa\	.	.
.	.	.	.	.	64gg#X\	.	.
.	.	.	.	.	64ggn\	.	.
.	.	.	.	.	64ff#X\JJJJ)	.	.
.	.	.	.	.	64ryy	.	.
.	.	.	.	.	8ryy	.	.
!!LO:PB:g=original
=68	=68	=68	=68	=68	=68	=68	=68
.	.	.	.	.	(>16qqff\LL	.	.
!	!	!	!	!	!LO:MO:mod=!LO&colon;TX&colon;a&colon;B&colon;t=Tempo I	!	!
!	!	!	!LO:TX:a:B:t= :mod=[Tempo I]	!	!LO:TX:a:t=Tempo 1o.	!	!
.	.	.	.	.	16qqee\JJ)	.	.
*^	*	*	*^	*	*	*	*
8rA	2GG\	.	.	4r	4ryy	.	(>8ddv>\L	.	.
[<8G/	.	.	.	.	.	.	8ee\)	.	.
!	!	!	!	!	!LO:TX:t=P:problem=all\left&colon; global	!	!	!	!
4G/]	.	.	.	(>8a^>/L	4f\ 4B\	.	8ff\	.	.
.	.	.	.	8b/J)	.	.	(>16ee~>\L	.	.
.	.	.	.	.	.	.	16dd~>\JJ	.	.
=69	=69	=69	=69	=69	=69	=69	=69	=69	=69
!	!	!	!	!	!	!	!LO:TX:t=P:problem=8\right	!	!
8rA	2C\	.	.	4r	4ryy	.	8ee~>\)	.	<
!	!	!	!	!	!	!	!LO:TX:t=P:problem=all\left&colon; global	!	!
[<8G/	.	.	.	.	.	.	(>4gg\	.	.
4G/]	.	.	.	(>8b^>/L	4e\ 4c\	.	.	.	[
.	.	.	.	8cc/J)	.	.	8ee\)	4	.
=70	=70	=70	=70	=70	=70	=70	=70	=70	=70
8rA	2FF\	.	.	4r	4ryy	.	8dd\L	.	.
[<8A/	.	.	.	.	.	.	8cc\	.	>
4A/]	.	.	.	(>8dd^>/L	4a\ 4f\	.	(>8a\	4	.
.	.	.	.	8dd#X/J)	.	.	8cc\J)	4	]
*	*	*	*	*v	*v	*	*	*	*
=71	=71	=71	=71	=71	=71	=71	=71	=71
.	.	.	.	.	.	(<8qcc/	.	.
8rA	2C\	.	.	4r	.	2g^>/)	.	.
!LO:TX:t=P:problem=nie wyświetla się palcowanie	!	!	!	!	!	!	!	!
[<8G/	.	3	.	.	.	.	.	.
!LO:TX:t=P:problem:klamra między systemami	!	!	!	!LO:MO:mod=(>8ee^>/L	!	!	!	!
4g>\ 4e>\ 4G\]	.	1	.	(>8ee^>/L	.	.	.	.
.	.	.	.	8gg/J)	.	.	.	.
=72	=72	=72	=72	=72	=72	=72	=72	=72
8rA	2C\	.	.	4r	.	8dd\L	.	<
[<8G/	.	.	.	.	.	8ee\	.	.
!	!	!	!	!	!	!LO:SIC:s=(<16qqff/LL	!	!
.	.	.	.	.	.	(>(<16qqff/LL	.	.
.	.	.	.	.	.	16qqgg/JJ)	.	.
!	!	!	!	!LO:TX:t=P:problem=all\middle&colon; global	!	!LO:SIC:s=(8ff\	!	!
4f/ 4G/]	.	.	.	(>8aa-X\L [>\8ff 8a-X\	<	8ff\	.	.
.	.	.	.	8bb\J 8ff\] 8b\)	.	16ee\L	.	.
.	.	.	.	.	<	16dd\JJ	.	[[
=73	=73	=73	=73	=73	=73	=73	=73	=73
!	!	!	!	!	!	!LO:TX:b:i:t=espres.:mod=espress.	!	!
8rA	2C\	.	.	4r	.	8ee\)	.	.
[<8A/	.	.	.	.	[	(>4aa\	.	.
!	!	!	!	!LO:TX:t=P:problem=8\right	!	!	!	!
4e/ 4A/]	.	.	.	(>8ccc\L 8aan\ 8cc\	.	.	.	.
!	!	!	!	!LO:TX:t=P:problem=8\left	!	!	!	!
.	.	.	.	8eee\J 8ee\)	[[	8ee\)	.	.
!!LO:LB:g=original
=74	=74	=74	=74	=74	=74	=74	=74	=74
!	!	!	!	!	!	!LO:TX:t=P:problem=all\left&colon; global	!	!
8rA	2AA\	.	.	8r	.	8ddM>\L	.	.
!	!	!	!	!LO:TX:t=P:problem=all\middle&colon; global	!	!	!	!
!	!	!	!	!LO:TX:b:i:t=espres.:mod=espress.	!	!	!	!
(<8E/	.	.	.	(>8fff#X\L 8aa\ 8ff#X\	.	8cc\	.	.
4f#X/ 4c/ 4A/)	.	.	.	8eee\ 8ee\	.	(>8dd\	.	.
.	.	.	.	8ccc\J 8cc\)	.	8ee\J)	.	.
=75	=75	=75	=75	=75	=75	=75	=75	=75
.	.	.	.	.	.	(<8qee/	.	.
!	!LO:TX:t=P:problem=4\middle&colon; global	!	!	!	!	!	!	!
8r	4EE;>\	.	.	8r	.	4.b;>/)	.	.
!	!	!	!	!LO:TX:b:i:t=rit.	!	!	!	!
4E/	.	.	.	(>8bb/L 8gg#X/ 8b/	.	.	.	.
.	4ryy	.	.	8gg#/ 8ee/ 8b/)	.	.	.	.
!	!	!	!	!LO:TX:a:B:t=Vivace.:mod=Vivace	!	!LO:TX:a:B:t=Vivace	!	!
!	!	!	!	!LO:SIC:v:s=8b/J 8g#/	!	!	!	!
8r	.	.	.	8b/J 8g/	.	8ee\	.	.
*v	*v	*	*	*	*	*	*	*
=76	=76	=76	=76	=76	=76	=76	=76
2Gn\	.	.	8r	.	4gg\	.	.
.	.	.	8b/ 8gn/ 8d/	.	.	.	.
.	.	.	.	.	(<8qb/	.	.
!	!	!	!	!	!	!	!LO:DY:a:t=pp.
.	.	.	8r	.	8dd\L)	.	pp
.	.	.	.	.	(<8qb-X/	.	.
.	.	.	8b-X/ 8g/ 8c#X/	.	8ee\J)	.	.
=77	=77	=77	=77	=77	=77	=77	=77
.	.	.	.	.	(>8qa/	.	.
!	!	!	!	!	!LO:TX:t=P:problem=all\middle&colon; global	!	!
2D\	.	.	8r	.	8ff\L)	.	.
.	.	.	.	.	(>16qqff/LL	.	.
.	.	.	.	.	16qqgg/JJ)	.	.
.	.	.	8a/ 8f/ 8d/	.	8ff\	.	.
.	.	.	8r	.	(>8ee\	.	.
.	.	.	8dd/ 8a/ 8f/	.	8dd\J	.	.
=78	=78	=78	=78	=78	=78	=78	=78
2G\	.	.	8r	.	8gg\L)	.	.
!	!	!	!	!	!LO:MO:mod=(>16qqgg/LL	!	!
.	.	.	.	.	(>16qqgg/LL	.	.
.	.	.	.	.	16qqaa/JJ	.	.
.	.	.	8b/ 8g/ 8d/	.	8gg\	.	.
!	!	!	!	!	!LO:SIC:s=(8qb/	!	!
.	.	.	.	.	8qb/	.	.
!	!	!	!	!	!LO:SIC:s=8dd\))	!	!
.	.	.	8r	.	8dd\)	.	.
.	.	.	.	.	(>8qb-X/	.	.
.	.	.	8b-X/ 8g/ 8c#X/	.	8ee\J)	.	.
=79	=79	=79	=79	=79	=79	=79	=79
.	.	.	.	.	(>8qa/	.	.
4D\	.	.	8r	.	8ff\L)	.	.
.	.	.	.	.	(<16qqff/LL	.	.
.	.	.	.	.	16qqgg/JJ)	.	.
.	.	.	8a/ 8f/ 8d/	.	8ff\	.	.
!LO:TX:t=P:problem=all\left&colon; global	!	!	!	!	!LO:TX:t=P:problem=all\left&colon; global	!	!
4E\	.	.	8r	.	(>8ee\	.	.
.	.	.	8g#X/ 8e/ 8B/	.	8dd\J	.	.
!!LO:LB:g=original
=80	=80	=80	=80	=80	=80	=80	=80
!	!	!	!	!	!LO:TX:t=P:problem:brak zakończenia łuku	!	!
4A\	.	.	8r	.	8cc\L)	.	.
.	.	.	.	.	16qqcc/LL	.	.
.	.	.	.	.	16qqdd/JJ	.	.
.	.	.	8a/ 8e/ 8c/	.	(>8cc~>\	.	.
!	!	!	!	!	!LO:TX:t=P:problem=all\middle&colon; global	!	!
4D\	.	.	8r	.	8b~>\	.	.
.	.	.	8f#X/ 8e-X/ 8c/	.	8a~>\J	.	.
=81	=81	=81	=81	=81	=81	=81	=81
8G\L	.	.	8g/L 8d/ 8B/	.	8g/L)	.	.
!	!	!	!LO:MO:mod=!LO&colon;TX&colon;a&colon;i&colon;t=ritard.	!	!	!	!
!	!	!	!LO:TX:b:i:t=ritar.	!	!LO:TX:i:a:t= :mod=ritard.	!	!
!	!	!	!LO:SIC:s=(/8f#X 8c/	!	!	!	!
(>8D\	.	.	(<(>/8f#X 8c/	.	(<8b/	.	.
!	!	!	!LO:SIC:s=8g/ 8B/)	!	!LO:TX:i:b:t=rit:mod=	!	!
8G\)	.	.	8g/ 8B/))	.	8g/)	.	.
!LO:MO:mod=(<8D\J	!	!	!LO:SIC:s=(/8f#J 8c/	!	!	!	!
(>8D\J	.	.	(<(>/8f#J 8c/	.	(<8b/J	.	.
=82	=82	=82	=82	=82	=82	=82	=82
*^	*	*	*	*	*	*	*
!	!	!	!	!LO:SIC:s=8g/ 8B/)	!	!	!	!
8rA	2GG\)	.	.	8g/ 8B/))	.	8g/L)	.	.
.	.	.	.	.	.	(<16qqg/LL	.	.
.	.	.	.	.	.	16qqa/JJ)	.	.
8D/	.	.	.	8g/ 8B/	.	8g/	.	.
!	!	!	!	!	!	!LO:MO:mod=!LO&colon;TX&colon;a&colon;i&colon;t=rit.	!	!
!	!	!	!	!LO:TX:a:i:t= :mod=[rit.]	!	!LO:TX:b:i:t=rit.	!	!
8rA	.	.	.	8r	.	(<8f/	.	.
8C#X/	.	.	.	8e/ 8A#X/	.	8e/J	.	.
=83	=83	=83	=83	=83	=83	=83	=83	=83
2D/	8GG\L	.	.	8d/L 8B/	.	8d/L)	.	.
!	!	!	!	!LO:SIC:s=(</8f 8A/	!	!	!	!
.	(>8DD\	.	.	(<(>/8f 8A/	.	(<8f/	.	.
!	!	!	!	!LO:SIC:s=8d/ 8B/)	!	!	!	!
.	8GG\)	.	.	8d/ 8B/))	.	8d/)	.	.
.	8DD\J	.	.	8f/J 8A/	.	(<8f/J	.	.
*v	*v	*	*	*	*	*	*	*
.	.	.	.	.	8qG/)	.	.
=84	=84	=84	=84	=84	=84	=84	=84
!	!	!	!	!	!LO:TX:a:B:t=Cadenza	!	!
4r	.	.	4r	.	2G;<u>/	.	.
!LO:MO:mod=4GG\ 4GGG\;<	!	!	!	!	!	!	!
4GG\ 4GGG\	.	.	4d</ 4B</ 4G</ 4D<;>/	.	.	.	.
=85-	=85-	=85-	=85-	=85-	=85-	=85-	=85-
1r	.	.	1r	.	(>16G/LL	.	<
.	.	.	.	.	16f/	.	.
.	.	.	.	.	16ee/	.	.
.	.	.	.	.	16dd/JJ	.	.
.	.	.	.	.	16cc\LL	.	.
.	.	.	.	.	16b\	.	.
.	.	.	.	.	16aa\	.	.
.	.	.	.	.	16gg\JJ	.	.
=86-	=86-	=86-	=86-	=86-	=86-	=86-	=86-
.	.	.	.	.	16ff\LL	.	.
.	.	.	.	.	16dd\	.	.
.	.	.	.	.	16ccc\	.	.
.	.	.	.	.	16bb\JJ	.	.
.	.	.	.	.	16aa\LL	.	.
.	.	.	.	.	16ff\	.	.
.	.	.	.	.	16eee\	.	.
.	.	.	.	.	16ddd\JJ)	.	[[
!!LO:LB:g=original
=87	=87	=87	=87	=87	=87	=87	=87
1r	.	.	1r	.	(16ccc\LL	.	.
.	.	.	.	.	16bb\	.	.
.	.	.	.	.	16aa\	.	>
.	.	.	.	.	16ff#X\JJ	.	.
.	.	.	.	.	16aa\LL	.	.
.	.	.	.	.	16gg\	.	.
.	.	.	.	.	16ffn\	.	.
.	.	.	.	.	16dd\JJ	.	.
=88-	=88-	=88-	=88-	=88-	=88-	=88-	=88-
.	.	.	.	.	16ee\LL	.	.
.	.	.	.	.	16dd\	.	.
.	.	.	.	.	16cc\	.	.
.	.	.	.	.	16b\JJ	.	.
.	.	.	.	.	16dd\LL	.	]
.	.	.	.	.	16cc\)	.	.
.	.	.	.	.	16a\	.	.
.	.	.	.	.	16f#X\JJ	.	.
=89-	=89-	=89-	=89-	=89-	=89-	=89-	=89-
2ryy	.	.	2ryy	.	(>32g\LLL	.	.
.	.	.	.	.	32b\	.	.
.	.	.	.	.	32a#X\	.	<
.	.	.	.	.	32cc\JJJ	.	.
.	.	.	.	.	32b\LLL	.	.
.	.	.	.	.	32dd\	.	.
.	.	.	.	.	32cc#X\	.	.
.	.	.	.	.	32ee\JJJ	.	.
.	.	.	.	.	32dd\LLL	.	.
.	.	.	.	.	32gg\	.	.
.	.	.	.	.	32ff#X\	.	.
.	.	.	.	.	32aa\JJJ	.	.
.	.	.	.	.	32gg\LLL	.	.
.	.	.	.	.	32bb\	.	.
.	.	.	.	.	32aa#X\	.	.
.	.	.	.	.	32ccc\JJJ	.	.
=90-	=90-	=90-	=90-	=90-	=90-	=90-	=90-
2ryy	.	.	2ryy	.	32bb\LLL	.	.
.	.	.	.	.	32ddd\	.	.
.	.	.	.	.	32ccc#X\	.	.
.	.	.	.	.	32eee\JJJ	.	.
*	*	*	*	*	*8va	*	*
.	.	.	.	.	32ddd\LLL	.	.
.	.	.	.	.	32ggg\	.	.
.	.	.	.	.	32fff#X\	.	.
.	.	.	.	.	32aaan\JJJ	.	.
.	.	.	.	.	32ggg\LLL	.	.
.	.	.	.	.	32bbb\	.	.
.	.	.	.	.	32aaa#X\	.	.
.	.	.	.	.	32cccc\JJJ	.	.
.	.	.	.	.	32bbb\LLL	.	.
.	.	.	.	.	32dddd\	.	.
.	.	.	.	.	32cccc#X\	.	.
.	.	.	.	.	32eeee\JJJ	.	.
=91-	=91-	=91-	=91-	=91-	=91-	=91-	=91-
2ryy	.	.	2ryy	.	4dddd\)	.	.
.	.	.	.	.	4gggg;>\	.	[
*	*	*	*	*	*X8va	*	*
=92-	=92-	=92-	=92-	=92-	=92-	=92-	=92-
2ryy	.	.	2ryy	.	4ryy	.	.
!	!	!	!	!	!LO:TR:acc=none	!	!
!	!	!	!	!	!LO:TX:a:t=loco	!	!
.	.	.	.	.	[>4ggTT\	.	.
!!LO:PB:g=original
=93	=93	=93	=93	=93	=93	=93	=93
*^	*	*	*	*	*	*	*
!	!	!	!	!LO:TX:t=P:problem=all\right&colon; global	!LO:MO:mod=!null:null	!LO:TX:t=P:4\left:problem	!	!
!	!	!	!	!LO:TX:a:i:t=a Tempo:mod=a tempo	!LO:HP:a	!LO:TX:a:i:t=a Tempo:mod=a tempo	!	!
4r	2GG\ 2CC\	.	.	(8dd\L 8b\ 8g\ 8d\	mf<	4ggTTT>\]	.	.
.	.	.	.	8ee\ 8e\	.	.	.	.
!LO:TX:t=P:4\left:problem	!	!	!	!	!LO:MO:mod=[[	!	!	!
4B\ 4G\	.	.	.	8ff\ 8b\ 8g\ 8f\	[	8aa\L	.	.
!	!	!	!	!LO:TX:a:i:t=con espressione.	!	!	!	!
.	.	.	.	16ee\L 16e\	.	8bb\J	.	.
.	.	.	.	16dd\JJ 16d\)	.	.	.	.
=94	=94	=94	=94	=94	=94	=94	=94	=94
4r	2GG\ 2CC\	.	.	(>8ee\ 8cc\ 8g\ 8e\	<	8ccc\L	.	<
.	.	.	.	4gg\ 4g\	.	8ddd\	.	.
4c/ 4G/ 4C/	.	.	.	.	.	(>8eee\	.	.
!	!	!	!	!LO:TX:t=P:problem=8\left	!	!	!	!
.	.	.	.	8ee\ 8d\)	[	8ggg\J)	.	[[
*v	*v	*	*	*	*	*	*	*
=95	=95	=95	=95	=95	=95	=95	=95
*	*	*	*	*	*8va	*	*
*^	*	*	*	*	*	*	*
4r	2FF\ 2CC\	.	.	8dd/L 8a/ 8f/ 8d/	.	(>8aaa\L	.	.
.	.	.	.	8cc/ 8c/	>	8bbb\	.	.
4F/ 4C/	.	.	.	8a/ 8f/ 8A/	.	8cccc\)	.	.
.	.	.	.	8cc/J 8c/	]	16bbb\L	.	.
.	.	.	.	.	.	16aaa\JJ	.	.
*v	*v	*	*	*	*	*	*	*
=96	=96	=96	=96	=96	=96	=96	=96
.	.	.	8qcc/	.	.	.	.
(>8GG\L 8CC\	.	.	2g/ 2e/ 2G^>/	.	(>4.eeee\	.	.
8E\	.	.	.	.	.	.	.
8C\	.	.	.	.	.	.	.
8GG\J)	.	.	.	.	8eee\)	.	.
*	*	*	*	*	*X8va	*	*
=97	=97	=97	=97	=97	=97	=97	=97
*^	*	*	*	*	*	*	*
!	!	!	!	!	!	!LO:TX:a:t=loco	!	!
4r	2GG 2CC\	.	.	(>8dd\L 8b\ 8g\ 8d\	.	(>4ggg\	.	.
!	!	!	!	!LO:TX:t=P:problem=8\left	!	!	!	!
.	.	.	.	8ee\ 8e\	.	.	.	.
4B/ 4G/	.	.	.	8gg\ 8b\ 8g\ 8f\	.	8ddd\L)	.	.
!	!	!	!	!LO:TX:t=P:problem=16\left	!	!	!	!
.	.	.	.	16ee\L 16e\	.	(>8eee\J	.	.
!	!	!	!	!LO:TX:t=P:problem=all\middle&colon; global	!	!	!	!
.	.	.	.	16dd\JJ 16d\)	.	.	.	.
=98	=98	=98	=98	=98	=98	=98	=98	=98
!	!	!	!	!LO:TX:t=P:problem=8\right	!	!	!	!
4r	2GG\ 2CC\	.	.	(>8ee\L 8cc\ 8g\ 8e\	.	8ccc\L)	.	.
.	.	.	.	8ff\ 8f\	.	8aa\	.	.
4c/ 4G/	.	.	.	8ee\ 8cc\ 8e\	.	(>8gg\	.	.
!	!	!	!	!	!	!LO:TX:t=P:problem=8\left	!	!
.	.	.	.	8gg\J 8g\)	.	8ee\J	.	.
!!LO:LB:g=original
=99	=99	=99	=99	=99	=99	=99	=99	=99
!	!	!	!	!LO:TX:t=P:4\right:problem	!	!LO:TX:t=P:problem=8\right	!	!
4G/	2C\	.	.	4gg\ 4ff\ 4b\ 4g\	.	8gg\L)	.	.
!	!	!	!	!	!	!LO:TX:t=P:problem=all\middle&colon; global	!	!
.	.	.	.	.	.	16ff\L	.	.
.	.	.	.	.	.	16ee\J	.	.
!	!	!	!	!LO:SIC:s=(>/4b 4f/ 4B/	!	!	!	!
4A-X/	.	.	.	(<(>/4b 4f/ 4B/	.	(>8dd\	.	.
.	.	.	.	.	.	8ee\J	.	.
=100	=100	=100	=100	=100	=100	=100	=100	=100
!	!	!	!	!LO:SIC:s=(>/8ccL 8e/ 8c/)	!	!LO:TX:t=P:problem=8\right&colon; global	!	!
2G/	2C\	.	.	(>/8ccL 8e/ 8c/))	.	8cc\L)	.	.
!	!	!	!	!	!	!	!	!LO:MO:mod=!LO&colon;HP&colon;a&colon;t=allargando e dim.
!	!	!	!	!LO:TX:a:i:t= :mod=[allargando]	!	!	!	!LO:HP:t=allargando e dim
.	.	.	.	8f/	>	(>8a-X\J	.	>
.	.	.	.	8e/	.	4cc\)	.	.
.	.	.	.	8c/J)	]	.	.	.
=101	=101	=101	=101	=101	=101	=101	=101	=101
!	!	!	!	!	!	!LO:TX:t=P:problem=all\middle&colon; global	!	!
8rA	2GG 2CC\	.	.	8r	.	(>4gg\	.	.
(<16G/LL	.	.	.	[>/8f [<8B/	.	.	.	.
16A/JJ	.	.	.	.	.	.	.	.
4G/)	.	.	.	4f/] 4B/]	.	8dd\L	.	.
.	.	.	.	.	.	8ee\J)	.	.
=102	=102	=102	=102	=102	=102	=102	=102	=102
!	!	!	!	!	!	!LO:TX:t=P:problem=all\right&colon; global	!	!
8rA	2GG 2CC\	.	.	8r	.	8cc\L	.	.
(<16G/LL	.	.	.	[>/8e [<8c/	.	8a\	.	.
16A/JJ	.	.	.	.	.	.	.	.
4G/)	.	.	.	4e/] 4c/]	.	(>8g\	.	<
.	.	.	.	.	.	8e\J	.	.
*v	*v	*	*	*	*	*	*	*
=103	=103	=103	=103	=103	=103	=103	=103
!	!	!	!	!	!LO:MO:mod=!LO&colon;TX&colon;a&colon;t=sul G	!	!
!LO:TX:t=P:problem=all\left&colon; global	!	!	!	!	!LO:TX:a:t=sol. G.:rj	!	!
4CC#X\	.	.	(>4e</ 4B-X</ 4G</	.	8g/L)	.	.
.	.	.	.	.	16f/L	.	[
.	.	.	.	.	16e/J	.	.
!	!	!	!	!LO:DY:a	!	!	!
4DD\	.	.	4d</ 4A</ 4F</	<[	(<8d/	.	.
.	.	.	.	.	8e/J)	.	.
=104	=104	=104	=104	=104	=104	=104	=104
!	!	!	!	!LO:DY:a	!	!	!
4GGG\	.	.	4d</ 4A-X</ 4F</	>	(<4f/	.	.
!	!	!	!	!	!LO:MO:mod=!LO&colon;TX&colon;a&colon;i&colon;t=largo	!	!
!	!	!	!	!	!LO:TX:t=lar-go.:dur=2q:ext=ud:problem=text with extention lines	!	!
4GG\	.	.	4B</ 4G</ 4F</)	]	8e/L	.	.
.	.	.	.	.	8d/J)	.	.
!!LO:LB:g=original
=105	=105	=105	=105	=105	=105	=105	=105
!	!	!	!	!	!	!	!LO:MO:mod=!null:null
!LO:TX:t=P:problem=all\middle&colon; global	!	!	!	!	!	!	!LO:HP:a
4CC\	.	.	(>4c</ 4G</ 4E</	.	(<8c/	.	<
.	.	.	.	.	4G/	.	.
4GG\	.	.	4B</ 4G</ 4F</	.	.	.	.
!	!	!	!	!	!LO:TUP:b:problem=klamra łukowa	!	!
.	.	.	.	.	24d/LL	.	[
.	.	.	.	.	24f/	.	.
.	.	.	.	.	24e/JJ)	.	.
=106	=106	=106	=106	=106	=106	=106	=106
!	!	!	!	!	!	!	!LO:MO:mod=!null:null
!	!	!	!	!	!	!	!LO:HP:a
4CC\	.	.	4c</ 4G</ 4E</	.	(<8c/L	.	<
.	.	.	.	.	8G/	.	.
4FF\	.	.	4c</ 4A-X</ 4D</)	.	8A-X/	.	.
!	!	!	!	!	!LO:TUP:b:problem=klamra łukowa	!	!
.	.	.	.	.	24d/L	.	[
.	.	.	.	.	24f/	.	.
.	.	.	.	.	24e/JJ)	.	.
=107	=107	=107	=107	=107	=107	=107	=107
!	!	!	!	!LO:DY:rj:t=p.	!LO:TX:a:t=G.:mod=sul G	!	!
[>2GG\ [<2CC\	.	.	(>8c</L 8E</	p	[<2g/	.	.
.	.	.	8C</	.	.	.	.
.	.	.	8F</	.	.	.	.
.	.	.	8E</J	.	.	.	.
=108	=108	=108	=108	=108	=108	=108	=108
!	!	!	!LO:TUP:b:problem=klamra łukowa	!	!	!	!
2GG\] 2CC\]	.	.	24D</LL	.	2g/_<	.	.
.	.	.	24E</	.	.	.	.
.	.	.	24D</J	.	.	.	.
.	.	.	8C</	.	.	.	.
.	.	.	8E</	.	.	.	.
.	.	.	8G</J)	.	.	.	.
=109	=109	=109	=109	=109	=109	=109	=109
*	*	*	*	*	*^	*	*
!LO:TX:t=P:problem=all\left&colon; global	!	!	!	!LO:DY:rj:t=pp.	!	!LO:TX:t=P:problem=all\middle&colon; global	!	!
!	!	!	!	!	!LO:MO:mod=(>4gyy/]	!	!	!
4C\ 4GG\ 4CC\	.	.	4e</ 4c</ 4G</	pp	(>4g/]	16g\LL	.	.
!	!	!	!	!	!	!LO:MO:mod=&(>16cc\	!	!LO:DY:b:t=pp.
.	.	.	.	.	.	16cc\	.	pp
.	.	.	.	.	.	16ff\	.	.
.	.	.	.	.	.	16ee\JJ	.	.
!	!	!	!	!	!	!LO:TUP:a:problem=klamra łukowa	!	!
4F\ 4C\ 4FF\	.	.	4a/ 4c/ 4A</	.	4ryy	48dd\LLL	.	.
.	.	.	.	.	.	48ee\	.	.
.	.	.	.	.	.	48dd\J	.	.
.	.	.	.	.	.	16cc\	.	.
.	.	.	.	.	.	16ff\	.	.
.	.	.	.	.	.	16aa\JJ	.	.
*	*	*	*	*	*v	*v	*	*
=110	=110	=110	=110	=110	=110	=110	=110
4C\ 4GG\ 4CC\	.	.	4e/ 4c/ 4G</	.	16gg\LL	.	.
.	.	.	.	.	16ccc\	.	.
.	.	.	.	.	16fff\	.	.
.	.	.	.	.	16eee\JJ	.	.
!	!	!	!	!LO:DY:rj:t=pp.	!LO:TUP:a:problem=klamra łukowa	!	!
!	!	!	!	!LO:MO:mod=.	!	!	!
4F\ 4C\ 4FF\	.	.	4a/ 4c/ 4A</	pp	48ddd\LLL	.	.
.	.	.	.	.	48eee\	.	.
.	.	.	.	.	48ddd\J	.	.
.	.	.	.	.	16ccc\	.	.
.	.	.	.	.	16fff\	.	.
!	!	!	!	!	!LO:SIC:s=16aaa\JJ&)	!	!
.	.	.	.	.	16aaa\JJ)	.	.
!!LO:LB:g=original
=111	=111	=111	=111	=111	=111	=111	=111
!LO:TX:t=P:problem=all\middle&colon; global	!	!	!	!LO:DY:rj:t=pp.	!LO:TUP:a:problem=klamra łukowa	!	!LO:MO:null:mod=pp
4C\ 4GG\ 4CC\	.	.	4g/ 4e/ 4c</ 4G</	pp	(>20ggg\LL	.	.
.	.	.	.	.	20aaa\	.	.
!	!	!	!	!	!	!	!LO:MO:mod=.
.	.	.	.	.	20ggg\	.	pp
.	.	.	.	.	20eee\	.	.
.	.	.	.	.	20fff\JJ	.	.
!	!	!	!	!	!LO:TUP:a:problem=klamra łukowa	!	!
4A\ 4E\ 4AA\	.	.	4cc/ 4a/ 4e/ 4c/	.	20ggg\LL	.	.
.	.	.	.	.	20aaa\	.	.
.	.	.	.	.	20ggg\	.	.
.	.	.	.	.	20eee\	.	.
.	.	.	.	.	20fff\JJ	.	.
=112	=112	=112	=112	=112	=112	=112	=112
!	!	!	!LO:TX:t=P:problem=all\right&colon; global	!	!LO:TUP:a:problem=klamra łukowa	!	!
4e\ 4B\ 4E\	.	.	4gg\ 4ee\ 4b\ 4g\	.	20ggg\LL	.	.
.	.	.	.	.	20aaa\	.	.
.	.	.	.	.	20ggg\	.	.
.	.	.	.	.	20eee\	.	.
.	.	.	.	.	20fff\JJ	.	.
!	!	!	!	!	!LO:TUP:a:problem=klamra łukowa	!	!
!	!	!	!LO:MO:mod=!LO&colon;TX&colon;a&colon;i&colon;t=rit.	!	!LO:MO:mod=!LO&colon;TX&colon;a&colon;i&colon;t=rit.	!	!
!	!	!	!LO:TX:b:i:t=rit.:rj	!	!LO:TX:b:i:t=rit.	!	!
4g\ 4d\ 4G\	.	.	4bb\ 4gg\ 4ff\ 4b\	.	20ggg\LL	.	.
.	.	.	.	.	20aaa\	.	.
.	.	.	.	.	20ggg\	.	.
.	.	.	.	.	20eee\	.	.
.	.	.	.	.	20fff\JJ)	.	.
=113	=113	=113	=113	=113	=113	=113	=113
*	*	*	*	*	*8va	*	*
4cc>\ 4g\ 4c\	.	.	4ccc/ 4aa/ 4ee/ 4cc/	.	[<2eeeeo\	.	.
!LO:TX:t=P:4\left:problem	!	!	!	!LO:DY:rj:t=pp.	!	!	!
4G\ 4C\	.	.	4cc/ 4e/	pp	.	.	.
=114	=114	=114	=114	=114	=114	=114	=114
2GG\ 2CC\	.	.	2c</ 2E</	.	2eeee\]	.	.
*	*	*	*	*	*X8va	*	*
==	==	==	==	==	==	==	==
*-	*-	*-	*-	*-	*-	*-	*-
!!!system-decoration: g1,{(g2)}
!!!RDF**kern: > = above
!!!RDF**kern: < = below
!!!RDF**kern: | = vertical stroke
!!LO:MO:ori
!!!RDF**dynam: < = "cres", fontstyle="italic"
!!!RDF**dynam: > = "dim.", fontstyle="italic"
!!LO:MO:end
!!!ENC: Berenika Jozajtis
!!!END: 2021-11-08
!!!ENC: Jędrzej Mróz
!!!END: 2021-11-11
!!!ENC-modern: Katarzyna Serwa
!!!END-modern: 2022-09-10
!!!YEC: Copyright 2022 Narodowy Instytut Fryderyka Chopina (https://polishscores.org)
!!!YEM: Licence CC BY 4.0 (https://creativecommons.org/licenses/by/4.0)
!!!filter-modern: sic -sq | shed -e "s/LO:DY:(a|b|rj)/LO:dy:$1/L" | autostem -r | shed -k -e "s/([^a-gA-Gn#X-])[<>]/$1/g" | shed -k -e "s/:TUP:/:tup:/L" | shed -e "s/TX(.*):t=P:/tx$1:t=P:/LG" | shed -e "s/^(\d+[\/\\]right)/$1yy/I; s/^(\d+[\/\\]left)/$1yy/I" | modori -m
